flaticon/sport/referee.svg

<svg xmlns="http://www.w3.org/2000/svg" width="32" height="32" viewBox="0 0 24 24">
    <path d="M 23.160156 10.238281 C 23.070312 7.148438 22.183594 4.757812 20.507812 3.148438 C 18.371094 1.09375 15.722656 1.035156 15.34375 1.035156 C 15.324219 1.035156 15.316406 1.035156 15.308594 1.035156 C 15.304688 1.035156 15.300781 1.035156 15.296875 1.035156 C 15.269531 1.035156 15.242188 1.046875 15.210938 1.050781 C 15.195312 1.054688 15.175781 1.054688 15.160156 1.0625 C 15.113281 1.082031 15.074219 1.105469 15.039062 1.136719 L 12.207031 3.613281 C 12.179688 3.640625 12.144531 3.660156 12.109375 3.671875 C 12.097656 3.675781 12.085938 3.675781 12.074219 3.679688 C 12.027344 3.6875 11.980469 3.6875 11.933594 3.679688 C 11.917969 3.675781 11.902344 3.675781 11.890625 3.671875 C 11.855469 3.660156 11.820312 3.640625 11.792969 3.613281 L 8.960938 1.136719 C 8.925781 1.105469 8.882812 1.082031 8.839844 1.0625 C 8.824219 1.054688 8.804688 1.054688 8.789062 1.050781 C 8.757812 1.046875 8.730469 1.035156 8.703125 1.035156 L 8.699219 1.035156 C 8.691406 1.035156 8.632812 1.035156 8.539062 1.035156 C 8.527344 1.035156 8.515625 1.039062 8.503906 1.039062 C 8.46875 1.039062 8.429688 1.039062 8.386719 1.042969 C 7.570312 1.089844 5.339844 1.371094 3.492188 3.148438 C 1.816406 4.757812 0.929688 7.148438 0.839844 10.238281 C 0.347656 10.4375 0 10.921875 0 11.484375 L 0 11.6875 C 0 12.429688 0.605469 13.035156 1.34375 13.035156 L 5.792969 13.035156 L 5.792969 20.484375 C 5.792969 20.5 5.792969 20.515625 5.796875 20.53125 C 5.796875 20.535156 5.796875 20.542969 5.796875 20.546875 C 5.835938 20.808594 6.207031 22.382812 9.828125 22.839844 C 9.832031 22.839844 9.832031 22.839844 9.835938 22.839844 C 9.839844 22.839844 9.839844 22.839844 9.84375 22.839844 C 10.464844 22.917969 11.175781 22.964844 12 22.964844 C 12.296875 22.964844 12.574219 22.957031 12.84375 22.949219 C 13.324219 22.925781 13.761719 22.890625 14.15625 22.839844 C 14.160156 22.839844 14.160156 22.839844 14.164062 22.839844 C 14.167969 22.839844 14.167969 22.839844 14.171875 22.839844 C 17.792969 22.382812 18.164062 20.808594 18.203125 20.546875 C 18.203125 20.542969 18.203125 20.535156 18.203125 20.53125 C 18.207031 20.515625 18.207031 20.5 18.207031 20.484375 L 18.207031 13.035156 L 22.65625 13.035156 C 23.394531 13.035156 24 12.429688 24 11.6875 L 24 11.484375 C 24 10.921875 23.652344 10.4375 23.160156 10.238281 Z M 3.308594 4.742188 C 3.558594 4.40625 3.835938 4.09375 4.136719 3.808594 L 4.136719 10.136719 L 3.308594 10.136719 Z M 2.484375 6.105469 L 2.484375 10.136719 L 1.664062 10.136719 C 1.71875 8.585938 2 7.246094 2.484375 6.105469 Z M 5.792969 12.207031 L 1.34375 12.207031 C 1.058594 12.207031 0.828125 11.976562 0.828125 11.6875 L 0.828125 11.484375 C 0.828125 11.199219 1.058594 10.964844 1.34375 10.964844 L 5.792969 10.964844 Z M 5.792969 10.136719 L 4.964844 10.136719 L 4.964844 3.027344 C 5.242188 2.84375 5.519531 2.6875 5.792969 2.558594 Z M 7.449219 21.296875 C 6.78125 20.90625 6.640625 20.511719 6.621094 20.445312 L 6.621094 5.171875 C 6.621094 5.296875 6.675781 5.414062 6.773438 5.496094 C 6.820312 5.53125 6.871094 5.550781 6.925781 5.566406 C 6.9375 5.570312 6.953125 5.570312 6.96875 5.574219 C 6.988281 5.578125 7.011719 5.585938 7.035156 5.585938 C 7.0625 5.585938 7.09375 5.582031 7.121094 5.578125 L 7.449219 5.507812 Z M 9.101562 21.882812 C 8.789062 21.820312 8.515625 21.742188 8.277344 21.664062 L 8.277344 5.328125 L 9.101562 5.152344 Z M 10.757812 22.097656 C 10.472656 22.078125 10.199219 22.054688 9.945312 22.019531 C 9.941406 22.019531 9.9375 22.019531 9.933594 22.019531 C 9.933594 22.019531 9.933594 22.019531 9.929688 22.019531 L 9.929688 4.972656 L 10.757812 4.796875 Z M 10.203125 4.066406 L 9.429688 4.234375 L 7.773438 4.589844 L 7.449219 4.660156 L 7.449219 2.003906 C 7.492188 1.996094 7.539062 1.984375 7.582031 1.976562 C 7.59375 1.976562 7.609375 1.972656 7.621094 1.96875 C 7.84375 1.929688 8.039062 1.90625 8.199219 1.886719 C 8.234375 1.886719 8.269531 1.882812 8.296875 1.878906 C 8.328125 1.878906 8.359375 1.875 8.390625 1.871094 C 8.445312 1.867188 8.496094 1.867188 8.535156 1.863281 L 10.886719 3.921875 Z M 12 22.136719 C 11.859375 22.136719 11.71875 22.136719 11.585938 22.132812 L 11.585938 4.617188 L 12 4.527344 L 12.414062 4.617188 L 12.414062 22.132812 C 12.28125 22.136719 12.140625 22.136719 12 22.136719 Z M 14.070312 22.019531 C 14.066406 22.019531 14.058594 22.019531 14.054688 22.019531 C 13.800781 22.050781 13.527344 22.078125 13.242188 22.097656 L 13.242188 4.796875 L 14.070312 4.972656 Z M 15.722656 21.660156 C 15.484375 21.742188 15.210938 21.816406 14.898438 21.882812 L 14.898438 5.152344 L 15.722656 5.328125 Z M 16.226562 4.589844 L 14.570312 4.234375 L 13.753906 4.058594 L 13.113281 3.921875 L 15.464844 1.863281 C 15.503906 1.867188 15.554688 1.867188 15.609375 1.871094 C 15.640625 1.875 15.671875 1.878906 15.703125 1.878906 C 15.730469 1.882812 15.765625 1.886719 15.800781 1.886719 C 15.960938 1.902344 16.15625 1.929688 16.378906 1.96875 C 16.390625 1.972656 16.40625 1.976562 16.417969 1.976562 C 16.460938 1.984375 16.507812 1.996094 16.550781 2.003906 L 16.550781 4.660156 Z M 17.378906 10.550781 L 17.378906 20.4375 C 17.375 20.460938 17.359375 20.5 17.332031 20.550781 C 17.332031 20.554688 17.332031 20.554688 17.328125 20.558594 C 17.316406 20.582031 17.300781 20.609375 17.285156 20.636719 C 17.28125 20.644531 17.277344 20.648438 17.273438 20.652344 C 17.257812 20.683594 17.234375 20.710938 17.210938 20.746094 C 17.203125 20.75 17.199219 20.757812 17.195312 20.765625 C 17.167969 20.796875 17.136719 20.832031 17.105469 20.867188 C 17.097656 20.875 17.089844 20.882812 17.082031 20.890625 C 17.046875 20.925781 17.007812 20.964844 16.964844 21.003906 C 16.957031 21.007812 16.949219 21.015625 16.941406 21.023438 C 16.894531 21.0625 16.839844 21.105469 16.78125 21.144531 C 16.773438 21.152344 16.769531 21.15625 16.761719 21.160156 C 16.699219 21.203125 16.628906 21.25 16.554688 21.292969 C 16.554688 21.292969 16.550781 21.292969 16.550781 21.296875 L 16.550781 5.507812 L 16.878906 5.578125 C 16.90625 5.582031 16.9375 5.585938 16.964844 5.585938 C 16.988281 5.585938 17.011719 5.578125 17.03125 5.574219 C 17.046875 5.574219 17.0625 5.570312 17.074219 5.566406 C 17.128906 5.550781 17.179688 5.53125 17.226562 5.496094 C 17.324219 5.414062 17.378906 5.296875 17.378906 5.171875 Z M 21.515625 6.105469 C 22 7.246094 22.28125 8.585938 22.335938 10.136719 L 21.515625 10.136719 Z M 19.863281 3.808594 C 20.164062 4.09375 20.441406 4.40625 20.691406 4.742188 L 20.691406 10.136719 L 19.863281 10.136719 Z M 18.207031 2.558594 C 18.480469 2.6875 18.757812 2.84375 19.035156 3.027344 L 19.035156 10.136719 L 18.207031 10.136719 Z M 23.171875 11.6875 C 23.171875 11.972656 22.941406 12.207031 22.65625 12.207031 L 18.207031 12.207031 L 18.207031 10.964844 L 22.65625 10.964844 C 22.941406 10.964844 23.171875 11.199219 23.171875 11.484375 Z M 23.171875 11.6875"/>
</svg>

<svg xmlns="http://www.w3.org/2000/svg" width="32" height="32" viewBox="0 0 24 24">
    <path d="M23.16 10.238c-.09-3.09-.976-5.48-2.652-7.09-2.137-2.054-4.785-2.113-5.164-2.113h-.047c-.027 0-.055.012-.086.016-.016.004-.035.004-.05.012a.42.42 0 0 0-.122.074l-2.832 2.476a.251.251 0 0 1-.098.059c-.011.004-.023.004-.035.008a.425.425 0 0 1-.14 0c-.016-.004-.032-.004-.043-.008a.251.251 0 0 1-.098-.059L8.961 1.137a.48.48 0 0 0-.121-.075c-.016-.007-.035-.007-.05-.011-.032-.004-.06-.016-.087-.016H8.54c-.012 0-.023.004-.035.004-.035 0-.074 0-.117.004-.817.047-3.047.328-4.895 2.105-1.676 1.61-2.562 4-2.652 7.09-.492.2-.84.684-.84 1.246v.204a1.35 1.35 0 0 0 1.344 1.347h4.449v7.45c0 .015 0 .03.004.046v.016c.039.262.41 1.836 4.031 2.293h.016c.62.078 1.332.125 2.156.125a16.784 16.784 0 0 0 2.156-.125h.016c3.621-.457 3.992-2.031 4.031-2.293v-.016c.004-.015.004-.031.004-.047v-7.449h4.45A1.35 1.35 0 0 0 24 11.687v-.203c0-.562-.348-1.046-.84-1.246zM3.31 4.742c.25-.336.527-.648.828-.933v6.328h-.828zm-.825 1.363v4.032h-.82c.055-1.551.336-2.89.82-4.032zm3.309 6.102h-4.45a.516.516 0 0 1-.515-.52v-.203c0-.285.23-.52.516-.52h4.449zm0-2.07h-.828v-7.11c.277-.183.555-.34.828-.468zm1.656 11.16c-.668-.39-.808-.785-.828-.852V5.172c0 .125.055.242.152.324a.45.45 0 0 0 .153.07c.011.004.027.004.043.008.02.004.043.012.066.012a.639.639 0 0 0 .086-.008l.328-.07zm1.653.586a7.08 7.08 0 0 1-.825-.219V5.328l.825-.176zm1.656.215a11.97 11.97 0 0 1-.813-.078h-.011-.004V4.973l.828-.176zm-.555-18.032l-.773.168-1.657.356-.324.07V2.004c.043-.008.09-.02.133-.027a.139.139 0 0 0 .04-.008c.222-.04.417-.063.577-.082.035 0 .07-.004.098-.008.031 0 .062-.004.094-.008.054-.004.105-.004.144-.008l2.352 2.059zM12 22.136c-.14 0-.281 0-.414-.003V4.617l.414-.09.414.09v17.516c-.133.004-.273.004-.414.004zm2.07-.116h-.015c-.254.03-.528.058-.813.078V4.797l.828.176zm1.653-.36a7.036 7.036 0 0 1-.825.223V5.153l.825.175zm.504-17.07l-1.657-.356-.816-.175-.64-.137 2.35-2.059c.04.004.09.004.145.008a.759.759 0 0 0 .094.008.707.707 0 0 0 .098.008 7.827 7.827 0 0 1 .617.09c.043.007.09.02.133.027V4.66zm1.152 5.96v9.887a.43.43 0 0 1-.047.114c0 .004 0 .004-.004.008l-.043.078a.054.054 0 0 1-.012.015c-.015.032-.039.059-.062.094-.008.004-.012.012-.016.02l-.09.101-.023.024c-.035.035-.074.074-.117.113-.008.004-.016.012-.024.02a1.9 1.9 0 0 1-.16.12 3.186 3.186 0 0 1-.227.148c0 .001-.003.001-.003.005V5.507l.328.071a.639.639 0 0 0 .086.008c.023 0 .047-.008.066-.012a.45.45 0 0 0 .195-.078.421.421 0 0 0 .153-.324zm4.137-4.445c.484 1.141.765 2.48.82 4.032h-.82zM19.863 3.81c.301.285.578.597.828.933v5.395h-.828zm-1.656-1.25c.273.128.55.285.828.468v7.11h-.828zm4.965 9.129c0 .285-.23.519-.516.519h-4.449v-1.242h4.45c.284 0 .515.234.515.52zm0 0"/>
</svg>
